V/vanhout.pro logo.svg

<?xml version="1.0" encoding="UTF-8"?>
<svg id="uuid-6a82bfd6-aae9-4ed8-97d1-586cc0047013" xmlns="http://www.w3.org/2000/svg" viewBox="0 0 429.54 82.83"><defs><style>.uuid-b39bc498-4659-4d9e-b74d-dafadb164f92{fill:#bd1e35;}.uuid-b39bc498-4659-4d9e-b74d-dafadb164f92,.uuid-474a257e-e4ca-4056-8904-dada4d3df391{stroke-width:0px;}.uuid-474a257e-e4ca-4056-8904-dada4d3df391{fill:#fff;}</style></defs><g id="uuid-c2b04cd0-25c8-4f10-a67d-24d7772f290c"><rect class="uuid-474a257e-e4ca-4056-8904-dada4d3df391" width="82.56" height="82.56"/><path class="uuid-b39bc498-4659-4d9e-b74d-dafadb164f92" d="m0,5.6h82.56V0H0v5.6Zm0,7h82.56v-5.6H0v5.6Zm0,7h82.56v-5.6H0v5.6Zm39.68,8.6l-1.64,4.16h3.28l-1.64-4.16Zm-17.19,10.53l-6.25-15.85h4.89l3.64,9.75,3.64-9.75h4.9l-6.25,15.85h-4.55Zm8.48,0l6.61-15.85h0s0,0,0,0h4.2,0s6.61,15.85,6.61,15.85h-4.55l-1.14-2.89h-6.03l-1.14,2.89h-4.55Zm18.34-15.85h4.21l6.47,8.28v-8.28h4.38v15.85h-3.91l-6.76-8.57v8.57h-4.38v-15.85ZM0,40.58h82.56v-5.59h-16.89v-1.4h16.89v-5.6h-16.89v-1.4h16.89v-5.6H0v5.6h16.29l.55,1.4H0v5.6h19.05l.55,1.4H0v5.59Zm30.04,11.17c0,2.43,1.83,4.41,4.08,4.41s4.08-1.97,4.08-4.41-1.83-4.41-4.08-4.41-4.08,1.97-4.08,4.41m-12.37-4.13h-3.57v3.87h3.57s1.71-.03,1.71-1.92-1.71-1.95-1.71-1.95m-7.95-3.71h7.99c3.34.01,6.17,2.03,6.17,5.66,0,2.92-1.88,4.1-3.06,4.87l3.5,5.32h-4.98l-3.09-4.79h-2.13v4.79h-4.39v-15.85Zm15.83,7.84c0-4.57,3.84-8.27,8.57-8.27s8.57,3.7,8.57,8.27-3.84,8.28-8.57,8.28-8.57-3.71-8.57-8.28m19.43-7.84h12.76v3.64h-8.3v2.32h7.54v3.64h-7.54v2.56h8.3v3.64h-12.76v-15.8Zm13.88.05h4.91l3.17,5.89,3.55-5.92h4.53l-5.85,9.72v6.03h-4.36v-5.99l-5.96-9.72ZM0,61.57h82.56v-5.6h-12.08v-1.4h12.08v-5.59h-9.04l.84-1.4h8.2v-5.59H0v5.59h8.4v1.4H0v5.59h8.4v1.4H0v5.6Zm0,7h82.56v-5.6H0v5.6Zm0,7h82.56v-5.6H0v5.6Zm82.56,1.4H0v5.6h82.56v-5.6Z"/><path class="uuid-474a257e-e4ca-4056-8904-dada4d3df391" d="m103.23,72.87h3.34c1.67,0,2.92.78,2.92,2.43,0,1.11-.68,1.81-1.66,2.14v.03c1.15.08,2.08,1.11,2.08,2.41,0,1.74-1.51,2.7-3.38,2.7h-3.3v-9.71Zm1.3,4.03h1.78c.99,0,1.79-.4,1.79-1.45,0-.77-.48-1.43-1.52-1.43h-2.05v2.88Zm0,4.53h1.91c.79,0,2.08-.28,2.08-1.65,0-1.15-.8-1.73-2.06-1.73h-1.93v3.37Z"/><path class="uuid-474a257e-e4ca-4056-8904-dada4d3df391" d="m111.52,77.73c0-2.88,2.08-5.1,5.01-5.1s5.01,2.22,5.01,5.1-2.08,5.1-5.01,5.1-5.01-2.22-5.01-5.1m8.64,0c0-2.13-1.43-3.87-3.62-3.87s-3.63,1.74-3.63,3.87,1.43,3.87,3.63,3.87,3.62-1.74,3.62-3.87"/><path class="uuid-474a257e-e4ca-4056-8904-dada4d3df391" d="m124.88,72.87v5.95c0,1.21.6,2.77,2.42,2.77s2.42-1.57,2.42-2.77v-5.95h1.3v6.16c0,2.25-1.62,3.8-3.72,3.8s-3.72-1.55-3.72-3.8v-6.16h1.3Z"/><polygon class="uuid-474a257e-e4ca-4056-8904-dada4d3df391" points="132.43 72.87 133.79 72.87 135.91 80.63 135.93 80.63 138.2 72.87 139.7 72.87 141.96 80.63 141.99 80.63 144.11 72.87 145.47 72.87 142.67 82.58 141.3 82.58 138.96 74.65 138.94 74.65 136.61 82.58 135.24 82.58 132.43 72.87"/><polygon class="uuid-474a257e-e4ca-4056-8904-dada4d3df391" points="147.05 72.87 153.26 72.87 153.26 74.11 148.36 74.11 148.36 77 152.92 77 152.92 78.23 148.36 78.23 148.36 81.35 153.5 81.35 153.5 82.58 147.05 82.58 147.05 72.87"/><polygon class="uuid-474a257e-e4ca-4056-8904-dada4d3df391" points="155.69 72.87 157.4 72.87 162.7 80.85 162.72 80.85 162.72 72.87 164.03 72.87 164.03 82.58 162.37 82.58 157.02 74.6 156.99 74.6 156.99 82.58 155.69 82.58 155.69 72.87"/><polygon class="uuid-474a257e-e4ca-4056-8904-dada4d3df391" points="170.86 72.87 172.8 72.87 175.85 80.22 175.91 80.22 178.93 72.87 180.88 72.87 180.88 82.58 179.57 82.58 179.57 74.6 179.55 74.6 176.3 82.58 175.43 82.58 172.19 74.6 172.16 74.6 172.16 82.58 170.86 82.58 170.86 72.87"/><polygon class="uuid-474a257e-e4ca-4056-8904-dada4d3df391" points="183.59 72.87 189.8 72.87 189.8 74.11 184.9 74.11 184.9 77 189.46 77 189.46 78.23 184.9 78.23 184.9 81.35 190.04 81.35 190.04 82.58 183.59 82.58 183.59 72.87"/><polygon class="uuid-474a257e-e4ca-4056-8904-dada4d3df391" points="194.24 74.11 191.14 74.11 191.14 72.87 198.64 72.87 198.64 74.11 195.54 74.11 195.54 82.58 194.24 82.58 194.24 74.11"/><polygon class="uuid-474a257e-e4ca-4056-8904-dada4d3df391" points="204.38 72.87 206.32 72.87 209.38 80.22 209.43 80.22 212.46 72.87 214.4 72.87 214.4 82.58 213.1 82.58 213.1 74.6 213.07 74.6 209.83 82.58 208.96 82.58 205.71 74.6 205.68 74.6 205.68 82.58 204.38 82.58 204.38 72.87"/><polygon class="uuid-474a257e-e4ca-4056-8904-dada4d3df391" points="217.12 72.87 223.32 72.87 223.32 74.11 218.42 74.11 218.42 77 222.98 77 222.98 78.23 218.42 78.23 218.42 81.35 223.57 81.35 223.57 82.58 217.12 82.58 217.12 72.87"/><polygon class="uuid-474a257e-e4ca-4056-8904-dada4d3df391" points="225.75 72.87 227.46 72.87 232.76 80.85 232.79 80.85 232.79 72.87 234.09 72.87 234.09 82.58 232.43 82.58 227.08 74.6 227.05 74.6 227.05 82.58 225.75 82.58 225.75 72.87"/><path class="uuid-474a257e-e4ca-4056-8904-dada4d3df391" d="m237.18,80.55c.46.71,1.26,1.04,2.04,1.04.86,0,1.92-.55,1.92-1.62,0-2.24-4.74-.85-4.74-4.64,0-1.14.95-2.72,3.26-2.72,1.05,0,2.05.22,2.77,1.11l-1.06.97c-.33-.51-.97-.85-1.71-.85-1.44,0-1.87.88-1.87,1.48,0,2.46,4.74.99,4.74,4.48,0,1.88-1.49,3-3.34,3-1.24,0-2.42-.42-3.07-1.34l1.07-.93Z"/><polygon class="uuid-474a257e-e4ca-4056-8904-dada4d3df391" points="244.79 72.87 250.99 72.87 250.99 74.11 246.09 74.11 246.09 77 250.65 77 250.65 78.23 246.09 78.23 246.09 81.35 251.24 81.35 251.24 82.58 244.79 82.58 244.79 72.87"/><polygon class="uuid-474a257e-e4ca-4056-8904-dada4d3df391" points="253.42 72.87 255.13 72.87 260.43 80.85 260.46 80.85 260.46 72.87 261.76 72.87 261.76 82.58 260.1 82.58 254.75 74.6 254.73 74.6 254.73 82.58 253.42 82.58 253.42 72.87"/><path class="uuid-474a257e-e4ca-4056-8904-dada4d3df391" d="m343.36,31.96c0-7.01,5.67-12.74,13.02-12.74s12.34,5.73,12.34,12.74-4.72,12.75-12.34,12.75-13.02-5.73-13.02-12.75m-3.64,28.26h4.05v-18.15h.13c2.5,4.32,7.82,6.27,12.48,6.27,9.57,0,16.39-6.88,16.39-16.39s-6.81-16.39-16.39-16.39c-4.65,0-9.98,1.95-12.48,6.27h-.13v-5.46h-4.05v43.84Zm-14.83-15.52c0,1.82,1.42,3.23,3.23,3.23s3.24-1.41,3.24-3.23-1.42-3.23-3.24-3.23-3.23,1.41-3.23,3.23"/><path class="uuid-474a257e-e4ca-4056-8904-dada4d3df391" d="m400.81,31.96c0-7.02,4.72-12.75,12.34-12.75s12.34,5.73,12.34,12.75-4.72,12.74-12.34,12.74-12.34-5.73-12.34-12.74m-4.05,0c0,9.51,6.81,16.38,16.39,16.38s16.39-6.88,16.39-16.38-6.81-16.39-16.39-16.39-16.39,6.88-16.39,16.39m-17.8,15.57h4.05v-16.99c0-6.07,3.17-10.92,10.18-10.92.41,0,.94.07,1.55.27l.47-3.98c-.81-.2-1.55-.33-2.36-.33-4.65,0-7.89,2.63-9.91,6.27-.13-.6-.2-3.17-.27-5.46h-4.05c0,1.62.34,6.47.34,8.77v22.38Z"/><path class="uuid-474a257e-e4ca-4056-8904-dada4d3df391" d="m316.71,16.37h-8.49V3.9h-5.92v12.47h-8.89v5.13h8.89v16.25c0,5,.13,10.59,9.28,10.59,1.18,0,3.95-.26,5.33-1.05v-5.4c-1.18.73-2.83.92-4.21.92-4.47,0-4.47-3.69-4.47-7.17v-14.15h8.49v-5.13Zm-22.37,0h-5.92v16.05c0,7.24-3.75,10.4-8.68,10.4-3.75,0-7.11-2.17-7.11-8.03v-18.42h-5.92v20.07c0,8.29,5.26,11.9,11.32,11.9,4.8,0,8.75-2.3,10.26-5.59h.13v4.8h5.92v-31.18Zm-64.93,15.59c0,9.08,7.3,16.38,16.58,16.38s16.58-7.3,16.58-16.38-7.3-16.38-16.58-16.38-16.58,7.3-16.58,16.38m6.32,0c0-6.32,3.95-10.85,10.26-10.85s10.26,4.54,10.26,10.85-3.95,10.86-10.26,10.86-10.26-4.54-10.26-10.86m-38.09,15.59h5.92v-16.05c0-7.24,3.75-10.4,8.68-10.4,3.75,0,7.11,2.17,7.11,8.02v18.42h5.92v-20.07c0-8.29-5.26-11.91-11.32-11.91-4.8,0-8.75,2.3-10.27,5.59h-.13V3.9h-5.92v43.65Zm-33.29,0h5.92v-16.05c0-7.24,3.75-10.4,8.68-10.4,3.75,0,7.11,2.17,7.11,8.02v18.42h5.92v-20.07c0-8.29-5.26-11.91-11.32-11.91-4.8,0-8.75,2.3-10.26,5.59h-.13v-4.8h-5.92v31.18Zm-10.86-15v1.98c0,4.21-2.3,9.08-8.88,9.08-4.08,0-6.71-1.51-6.71-5.07,0-5,6.84-5.99,12.43-5.99h3.16Zm-16.32-8.68c2.17-1.64,4.34-3.55,8.88-3.55,5.07,0,7.43,3.36,7.43,6.58v1.32h-4.34c-9.48,0-17.17,2.76-17.17,10.79,0,6.06,5,9.34,10.79,9.34,4.74,0,8.29-1.51,10.92-5.52h.13c0,1.58.07,3.16.2,4.73h5.26c-.2-1.64-.26-3.48-.26-5.66v-15.92c0-5.39-3.82-10.39-13.03-10.39-4.34,0-9.08,1.51-12.37,4.6l3.56,3.69Zm-24.34,23.68h6.51l12.24-31.18h-6.32l-8.95,23.88-9.34-23.88h-6.84l12.7,31.18Z"/></g></svg>

<?xml version="1.0" ?>
<svg xmlns="http://www.w3.org/2000/svg" viewBox="0 0 429.54 82.83">
    <defs>
        <style>
        .red {
            fill: #bd1e35;
        }

        .white {
            fill: #fff;
        }

        .black {
            fill: #000;
        }
        </style>
    </defs>
    <g>
        <rect class="white" width="82.56" height="82.56" />
        <path class="red" d="M 0.0,5.6 L 82.56,5.6 L 82.56,0.0 L 0.0,0.0 L 0.0,5.6 M 0.0,12.6 L 82.56,12.6 L 82.56,7.0 L 0.0,7.0 L 0.0,12.6 M 0.0,19.6 L 82.56,19.6 L 82.56,14.0 L 0.0,14.0 L 0.0,19.6 M 39.68,28.2 L 38.04,32.36 L 41.32,32.36 L 39.68,28.2 L 39.68,28.2 M 22.49,38.73 L 16.24,22.88 L 21.13,22.88 L 24.77,32.63 L 28.41,22.88 L 33.31,22.88 L 27.06,38.73 L 22.51,38.73 L 22.49,38.73 M 30.97,38.73 L 37.58,22.88 L 37.58,22.88 C 37.58,22.88 37.58,22.88 37.58,22.88 L 41.78,22.88 L 41.78,22.88 C 41.78,22.88 48.39,38.73 48.39,38.73 L 43.84,38.73 L 42.7,35.84 L 36.67,35.84 L 35.53,38.73 L 30.98,38.73 L 30.97,38.73 M 49.31,22.88 L 53.52,22.88 L 59.99,31.16 L 59.99,22.88 L 64.37,22.88 L 64.37,38.73 L 60.46,38.73 L 53.7,30.16 L 53.7,38.73 L 49.32,38.73 L 49.32,22.88 L 49.31,22.88 M 0.0,40.58 L 82.56,40.58 L 82.56,34.99 L 65.67,34.99 L 65.67,33.59 L 82.56,33.59 L 82.56,27.99 L 65.67,27.99 L 65.67,26.59 L 82.56,26.59 L 82.56,20.99 L 0.0,20.99 L 0.0,26.59 L 16.29,26.59 L 16.84,27.99 L 0.0,27.99 L 0.0,33.59 L 19.05,33.59 L 19.6,34.99 L 0.0,34.99 L 0.0,40.58 M 30.04,51.75 C 30.04,54.18 31.87,56.16 34.12,56.16 C 36.37,56.16 38.2,54.19 38.2,51.75 C 38.2,49.31 36.37,47.34 34.12,47.34 C 31.87,47.34 30.04,49.31 30.04,51.75 M 17.67,47.62 L 14.1,47.62 L 14.1,51.49 L 17.67,51.49 C 17.67,51.49 19.38,51.46 19.38,49.57 C 19.38,47.68 17.67,47.62 17.67,47.62 M 9.72,43.91 L 17.71,43.91 C 21.05,43.92 23.88,45.94 23.88,49.57 C 23.88,52.49 22.0,53.67 20.82,54.44 L 24.32,59.76 L 19.34,59.76 L 16.25,54.97 L 14.12,54.97 L 14.12,59.76 L 9.73,59.76 L 9.73,43.91 L 9.72,43.91 M 25.55,51.75 C 25.55,47.18 29.39,43.48 34.12,43.48 C 38.85,43.48 42.69,47.18 42.69,51.75 C 42.69,56.32 38.85,60.03 34.12,60.03 C 29.39,60.03 25.55,56.326 25.55,51.75 M 44.98,43.91 L 57.74,43.91 L 57.74,47.55 L 49.44,47.55 L 49.44,49.87 L 56.98,49.87 L 56.98,53.51 L 49.44,53.51 L 49.44,56.07 L 57.74,56.07 L 57.74,59.71 L 44.98,59.71 L 44.98,43.91 L 44.98,43.91 M 58.86,43.96 L 63.77,43.96 L 66.94,49.85 L 70.49,43.93 L 75.02,43.93 L 69.17,53.65 L 69.17,59.68 L 64.81,59.68 L 64.81,53.69 L 58.85,43.97 L 58.86,43.96 M 0.0,61.57 L 82.56,61.57 L 82.56,55.97 L 70.48,55.97 L 70.48,54.57 L 82.56,54.57 L 82.56,48.98 L 73.52,48.98 L 74.36,47.58 L 82.56,47.58 L 82.56,41.99 L 0.0,41.99 L 0.0,47.58 L 8.4,47.58 L 8.4,48.98 L 0.0,48.98 L 0.0,54.57 L 8.4,54.57 L 8.4,55.97 L 0.0,55.97 L 0.0,61.57 L 0.0,61.57 M 0.0,68.57 L 82.56,68.57 L 82.56,62.97 L 0.0,62.97 L 0.0,68.57 M 0.0,75.57 L 82.56,75.57 L 82.56,69.97 L 0.0,69.97 L 0.0,75.57 M 82.56,76.97 L 0.0,76.97 L 0.0,82.57 L 82.56,82.57 L 82.56,76.97" />
        <path d="M 103.23,72.87 L 106.57,72.87 C 108.24,72.87 109.49,73.65 109.49,75.3 C 109.49,76.41 108.81,77.11 107.83,77.44 L 107.83,77.47 C 108.98,77.55 109.91,78.58 109.91,79.88 C 109.91,81.62 108.4,82.58 106.53,82.58 L 103.23,82.58 L 103.23,72.87 L 103.23,72.87 M 104.53,76.9 L 106.31,76.9 C 107.3,76.9 108.1,76.5 108.1,75.45 C 108.1,74.68 107.62,74.02 106.58,74.02 L 104.53,74.02 L 104.53,76.9 L 104.53,76.9 M 104.53,81.43 L 106.44,81.43 C 107.23,81.43 108.52,81.15 108.52,79.78 C 108.52,78.63 107.72,78.05 106.46,78.05 L 104.53,78.05 L 104.53,81.42 L 104.53,81.43" />
        <path d="M 111.52,77.73 C 111.52,74.85 113.6,72.63 116.53,72.63 C 119.46,72.63 121.54,74.85 121.54,77.73 C 121.54,80.61 119.46,82.83 116.53,82.83 C 113.6,82.83 111.52,80.61 111.52,77.73 M 120.16,77.73 C 120.16,75.6 118.73,73.86 116.54,73.86 C 114.35,73.86 112.91,75.6 112.91,77.73 C 112.91,79.86 114.34,81.6 116.54,81.6 C 118.74,81.6 120.16,79.86 120.16,77.73" />
        <path d="M 124.88,72.87 L 124.88,78.82 C 124.88,80.03 125.48,81.59 127.3,81.59 C 129.12,81.59 129.72,80.02 129.72,78.82 L 129.72,72.87 L 131.02,72.87 L 131.02,79.03 C 131.02,81.28 129.4,82.83 127.3,82.83 C 125.2,82.83 123.58,81.28 123.58,79.03 L 123.58,72.87 L 124.88,72.87 L 124.88,72.87" />
        <polygon points="132.43 72.87 133.79 72.87 135.91 80.63 135.93 80.63 138.2 72.87 139.7 72.87 141.96 80.63 141.99 80.63 144.11 72.87 145.47 72.87 142.67 82.58 141.3 82.58 138.96 74.65 138.94 74.65 136.61 82.58 135.24 82.58 132.43 72.87" />
        <polygon points="147.05 72.87 153.26 72.87 153.26 74.11 148.36 74.11 148.36 77 152.92 77 152.92 78.23 148.36 78.23 148.36 81.35 153.5 81.35 153.5 82.58 147.05 82.58 147.05 72.87" />
        <polygon points="155.69 72.87 157.4 72.87 162.7 80.85 162.72 80.85 162.72 72.87 164.03 72.87 164.03 82.58 162.37 82.58 157.02 74.6 156.99 74.6 156.99 82.58 155.69 82.58 155.69 72.87" />
        <polygon points="170.86 72.87 172.8 72.87 175.85 80.22 175.91 80.22 178.93 72.87 180.88 72.87 180.88 82.58 179.57 82.58 179.57 74.6 179.55 74.6 176.3 82.58 175.43 82.58 172.19 74.6 172.16 74.6 172.16 82.58 170.86 82.58 170.86 72.87" />
        <polygon points="183.59 72.87 189.8 72.87 189.8 74.11 184.9 74.11 184.9 77 189.46 77 189.46 78.23 184.9 78.23 184.9 81.35 190.04 81.35 190.04 82.58 183.59 82.58 183.59 72.87" />
        <polygon points="194.24 74.11 191.14 74.11 191.14 72.87 198.64 72.87 198.64 74.11 195.54 74.11 195.54 82.58 194.24 82.58 194.24 74.11" />
        <polygon points="204.38 72.87 206.32 72.87 209.38 80.22 209.43 80.22 212.46 72.87 214.4 72.87 214.4 82.58 213.1 82.58 213.1 74.6 213.07 74.6 209.83 82.58 208.96 82.58 205.71 74.6 205.68 74.6 205.68 82.58 204.38 82.58 204.38 72.87" />
        <polygon points="217.12 72.87 223.32 72.87 223.32 74.11 218.42 74.11 218.42 77 222.98 77 222.98 78.23 218.42 78.23 218.42 81.35 223.57 81.35 223.57 82.58 217.12 82.58 217.12 72.87" />
        <polygon points="225.75 72.87 227.46 72.87 232.76 80.85 232.79 80.85 232.79 72.87 234.09 72.87 234.09 82.58 232.43 82.58 227.08 74.6 227.05 74.6 227.05 82.58 225.75 82.58 225.75 72.87" />
        <path d="M 237.18,80.55 C 237.64,81.26 238.44,81.59 239.22,81.59 C 240.08,81.59 241.14,81.04 241.14,79.97 C 241.14,77.73 236.4,79.12 236.4,75.33 C 236.4,74.19 237.35,72.61 239.66,72.61 C 240.71,72.61 241.71,72.83 242.43,73.72 L 241.37,74.69 C 241.04,74.18 240.4,73.84 239.66,73.84 C 238.22,73.84 237.79,74.72 237.79,75.32 C 237.79,77.78 242.53,76.31 242.53,79.8 C 242.53,81.68 241.04,82.8 239.19,82.8 C 237.95,82.8 236.77,82.38 236.12,81.46 L 237.19,80.53 L 237.18,80.55" />
        <polygon points="244.79 72.87 250.99 72.87 250.99 74.11 246.09 74.11 246.09 77 250.65 77 250.65 78.23 246.09 78.23 246.09 81.35 251.24 81.35 251.24 82.58 244.79 82.58 244.79 72.87" />
        <polygon points="253.42 72.87 255.13 72.87 260.43 80.85 260.46 80.85 260.46 72.87 261.76 72.87 261.76 82.58 260.1 82.58 254.75 74.6 254.73 74.6 254.73 82.58 253.42 82.58 253.42 72.87" />
        <path d="M 343.36,31.96 C 343.36,24.95 349.03,19.22 356.38,19.22 C 363.73,19.22 368.72,24.95 368.72,31.96 C 368.72,38.97 364.0,44.71 356.38,44.71 C 348.76,44.71 343.36,38.98 343.36,31.96 M 339.72,60.22 L 343.77,60.22 L 343.77,42.07 L 343.9,42.07 C 346.4,46.39 351.72,48.34 356.38,48.34 C 365.95,48.34 372.77,41.46 372.77,31.95 C 372.77,22.44 365.96,15.56 356.38,15.56 C 351.73,15.56 346.4,17.51 343.9,21.83 L 343.77,21.83 L 343.77,16.37 L 339.72,16.37 L 339.72,60.21 L 339.72,60.22 M 324.89,44.7 C 324.89,46.52 326.31,47.93 328.12,47.93 C 329.93,47.93 331.36,46.52 331.36,44.7 C 331.36,42.88 329.94,41.47 328.12,41.47 C 326.3,41.47 324.89,42.88 324.89,44.7" />
        <path d="M 400.81,31.96 C 400.81,24.94 405.53,19.21 413.15,19.21 C 420.77,19.21 425.49,24.94 425.49,31.96 C 425.49,38.98 420.77,44.7 413.15,44.7 C 405.53,44.7 400.81,38.97 400.81,31.96 M 396.76,31.96 C 396.76,41.47 403.57,48.34 413.15,48.34 C 422.73,48.34 429.54,41.46 429.54,31.96 C 429.54,22.46 422.73,15.57 413.15,15.57 C 403.57,15.57 396.76,22.45 396.76,31.96 M 378.96,47.53 L 383.01,47.53 L 383.01,30.54 C 383.01,24.47 386.18,19.62 393.19,19.62 C 393.6,19.62 394.13,19.69 394.74,19.89 L 395.21,15.91 C 394.4,15.71 393.66,15.58 392.85,15.58 C 388.2,15.58 384.96,18.21 382.94,21.85 C 382.81,21.25 382.74,18.68 382.67,16.39 L 378.62,16.39 C 378.62,18.01 378.96,22.86 378.96,25.16 L 378.96,47.54 L 378.96,47.53" />
        <path d="M 316.71,16.37 L 308.22,16.37 L 308.22,3.9 L 302.3,3.9 L 302.3,16.37 L 293.41,16.37 L 293.41,21.5 L 302.3,21.5 L 302.3,37.75 C 302.3,42.75 302.43,48.34 311.58,48.34 C 312.76,48.34 315.53,48.08 316.91,47.29 L 316.91,41.89 C 315.73,42.62 314.08,42.81 312.7,42.81 C 308.23,42.81 308.23,39.12 308.23,35.64 L 308.23,21.49 L 316.72,21.49 L 316.72,16.36 L 316.71,16.37 M 294.34,16.37 L 288.42,16.37 L 288.42,32.42 C 288.42,39.66 284.67,42.82 279.74,42.82 C 275.99,42.82 272.63,40.65 272.63,34.79 L 272.63,16.37 L 266.71,16.37 L 266.71,36.44 C 266.71,44.73 271.97,48.34 278.03,48.34 C 282.83,48.34 286.78,46.04 288.29,42.75 L 288.42,42.75 L 288.42,47.55 L 294.34,47.55 L 294.34,16.37 L 294.34,16.37 M 229.41,31.96 C 229.41,41.04 236.71,48.34 245.99,48.34 C 255.27,48.34 262.57,41.04 262.57,31.96 C 262.57,22.88 255.27,15.58 245.99,15.58 C 236.71,15.58 229.41,22.88 229.41,31.96 M 235.73,31.96 C 235.73,25.64 239.68,21.11 245.99,21.11 C 252.3,21.11 256.25,25.65 256.25,31.96 C 256.25,38.27 252.3,42.82 245.99,42.82 C 239.68,42.82 235.73,38.28 235.73,31.96 M 197.64,47.55 L 203.56,47.55 L 203.56,31.5 C 203.56,24.26 207.31,21.1 212.24,21.1 C 215.99,21.1 219.35,23.27 219.35,29.12 L 219.35,47.54 L 225.27,47.54 L 225.27,27.47 C 225.27,19.18 220.01,15.56 213.95,15.56 C 209.15,15.56 205.2,17.86 203.68,21.15 L 203.55,21.15 L 203.55,3.9 L 197.63,3.9 L 197.63,47.55 L 197.64,47.55 M 164.35,47.55 L 170.27,47.55 L 170.27,31.5 C 170.27,24.26 174.02,21.1 178.95,21.1 C 182.7,21.1 186.06,23.27 186.06,29.12 L 186.06,47.54 L 191.98,47.54 L 191.98,27.47 C 191.98,19.18 186.72,15.56 180.66,15.56 C 175.86,15.56 171.91,17.86 170.4,21.15 L 170.27,21.15 L 170.27,16.35 L 164.35,16.35 L 164.35,47.53 L 164.35,47.55 M 153.49,32.55 L 153.49,34.53 C 153.49,38.74 151.19,43.61 144.61,43.61 C 140.53,43.61 137.9,42.1 137.9,38.54 C 137.9,33.54 144.74,32.55 150.33,32.55 L 153.49,32.55 L 153.49,32.55 M 137.17,23.87 C 139.34,22.23 141.51,20.32 146.05,20.32 C 151.12,20.32 153.48,23.68 153.48,26.9 L 153.48,28.22 L 149.14,28.22 C 139.66,28.22 131.97,30.98 131.97,39.01 C 131.97,45.07 136.97,48.35 142.76,48.35 C 147.5,48.35 151.05,46.84 153.68,42.83 L 153.81,42.83 C 153.81,44.41 153.88,45.99 154.01,47.56 L 159.27,47.56 C 159.07,45.92 159.01,44.08 159.01,41.9 L 159.01,25.98 C 159.01,20.59 155.19,15.59 145.98,15.59 C 141.64,15.59 136.9,17.1 133.61,20.19 L 137.17,23.88 L 137.17,23.87 M 112.83,47.55 L 119.34,47.55 L 131.58,16.37 L 125.26,16.37 L 116.31,40.25 L 106.97,16.375 L 100.13,16.375 L 112.83,47.55" />
    </g>
</svg>
